Costumes/m-block.svg

<?xml version="1.0" encoding="UTF-8" standalone="no"?>
<svg
   version="1.1"
   width="74.845573"
   height="79.465668"
   id="svg5"
   sodipodi:docname="m-block.svg"
   xmlns:inkscape="http://www.inkscape.org/namespaces/inkscape"
   xmlns:sodipodi="http://sodipodi.sourceforge.net/DTD/sodipodi-0.dtd"
   xmlns="http://www.w3.org/2000/svg"
   xmlns:svg="http://www.w3.org/2000/svg">
  <defs
     id="defs9" />
  <sodipodi:namedview
     id="namedview7"
     pagecolor="#ffffff"
     bordercolor="#000000"
     borderopacity="0.25"
     inkscape:showpageshadow="2"
     inkscape:pageopacity="0.0"
     inkscape:pagecheckerboard="0"
     inkscape:deskcolor="#d1d1d1" />
  <!-- Exported by Scratch - http://scratch.mit.edu/ -->
  <g
     id="ID0.43227694323286414"
     transform="translate(-0.93915942,-0.5288469)">
    <path
       id="ID0.1628495492041111"
       fill="#ff9400"
       d="m 335,357 c 4.533,18.627 4.482,44.726 8,67 -4.819,-2.317 -8.934,1.577 -15,1 0.656,-12.291 1.445,-20.799 -2,-32 -4.114,0.553 -5.256,4.078 -5,9 -4.019,7.314 -8.57,14.097 -11,23 -6.662,-8.005 -8.048,-21.285 -17,-27 -2.142,7.097 0.811,20.317 2,30 -6.152,-0.486 -10.503,2.743 -16,1 -1.024,-10.444 -1.491,-25.64 -4,-36 2.577,-10.835 -2.481,-23.777 0,-34 2.792,-1.988 7.997,-1.337 12,-2 6.366,10.634 8.786,25.214 15,36 9.736,-7.598 10.065,-24.602 16,-36 4.9,-2.816 10.49,1.207 17,0 z"
       transform="matrix(0.9240194,0,0,0.9240194,-244.85,-325.65)" />
    <path
       id="ID0.9830254283733666"
       d="m 316,353 c 7.667,0 15.333,0 23,0 1.504,23.549 3.374,48.503 8,70 0,1 0,2 0,3 -4.901,-0.234 -4.67,4.663 -6,8 -7.654,-0.654 -13.237,0.763 -19,2 -2.974,-10.647 -0.36,-15.252 -2,-26 -3.94,9.727 -8.647,18.686 -15,26 -6.076,-2.269 -3.467,-18.518 -9,-18 1.551,3.782 0.936,9.731 4,12 -2.882,1.828 -3.128,1.622 -7,1 -0.171,2.829 0.86,6.86 -2,7 -4.969,-0.543 -12.693,-2.511 -16,1 -0.667,0 -1.333,0 -2,0 -2.193,-15.117 0.446,-31.733 -6,-44 2.779,-7.956 2.141,-21.323 -1,-29 0,-1 0,-2 0,-3 7.042,1.376 6.069,-5.264 9,-8 5.779,0.445 10.247,-0.42 15,-1 2.435,10.565 8.287,17.713 11,28 4.743,-6.618 5.826,-15.604 7,-23 1.667,0 3.333,0 5,0 0.957,-2.043 2.043,-3.957 3,-6 z m 2,4 c -5.935,11.398 -6.264,28.402 -16,36 -6.214,-10.786 -8.634,-25.366 -15,-36 -4.003,0.663 -8.704,0.63 -12,2 -2.115,10.05 5.8,23.633 0,34 4.33,8.678 4.629,25.565 4,36 6.446,0.779 9.848,-1.486 16,-1 -1.189,-9.683 -4.142,-22.903 -2,-30 8.952,5.715 10.338,18.995 17,27 2.43,-8.903 6.981,-15.686 11,-23 -0.256,-4.922 0.886,-8.447 5,-9 3.445,11.201 2.656,19.709 2,32 6.066,0.577 10.181,-3.317 15,-1 -3.518,-22.274 -3.467,-48.373 -8,-67 -6.51,1.207 -12.1,-2.816 -17,0 z"
       transform="matrix(0.9240194,0,0,0.9240194,-244.85,-325.65)" />
  </g>
</svg>

<svg version="1.1" width="76" height="80" xmlns="http://www.w3.org/2000/svg" xmlns:xlink="http://www.w3.org/1999/xlink">
  <!-- Exported by Scratch - http://scratch.mit.edu/ -->
  <g id="ID0.43227694323286414">
    <path id="ID0.1628495492041111" fill="#FF9400" d="M 335 357 C 339.533 375.627 339.482 401.726 343 424 C 338.181 421.683 334.066 425.577 328 425 C 328.656 412.709 329.445 404.201 326 393 C 321.886 393.553 320.744 397.078 321 402 C 316.981 409.314 312.430 416.097 310 425 C 303.338 416.995 301.952 403.715 293 398 C 290.858 405.097 293.811 418.317 295 428 C 288.848 427.514 284.497 430.743 279 429 C 277.976 418.556 277.509 403.360 275 393 C 277.577 382.165 272.519 369.223 275 359 C 277.792 357.012 282.997 357.663 287 357 C 293.366 367.634 295.786 382.214 302 393 C 311.736 385.402 312.065 368.398 318 357 C 322.900 354.184 328.490 358.207 335 357 Z " transform="matrix(0.9240193963050842, 0, 0, 0.9240193963050842, -244.85, -325.65)"/>
    <path id="ID0.9830254283733666" d="M 316 353 C 323.667 353 331.333 353 339 353 C 340.504 376.549 342.374 401.503 347 423 C 347 424 347 425 347 426 C 342.099 425.766 342.330 430.663 341 434 C 333.346 433.346 327.763 434.763 322 436 C 319.026 425.353 321.640 420.748 320 410 C 316.060 419.727 311.353 428.686 305 436 C 298.924 433.731 301.533 417.482 296 418 C 297.551 421.782 296.936 427.731 300 430 C 297.118 431.828 296.872 431.622 293 431 C 292.829 433.829 293.860 437.860 291 438 C 286.031 437.457 278.307 435.489 275 439 C 274.333 439 273.667 439 273 439 C 270.807 423.883 273.446 407.267 267 395 C 269.779 387.044 269.141 373.677 266 366 C 266 365 266 364 266 363 C 273.042 364.376 272.069 357.736 275 355 C 280.779 355.445 285.247 354.580 290 354 C 292.435 364.565 298.287 371.713 301 382 C 305.743 375.382 306.826 366.396 308 359 C 309.667 359 311.333 359 313 359 C 313.957 356.957 315.043 355.043 316 353 Z M 318 357 C 312.065 368.398 311.736 385.402 302 393 C 295.786 382.214 293.366 367.634 287 357 C 282.997 357.663 278.296 357.630 275 359 C 272.885 369.050 280.800 382.633 275 393 C 279.330 401.678 279.629 418.565 279 429 C 285.446 429.779 288.848 427.514 295 428 C 293.811 418.317 290.858 405.097 293 398 C 301.952 403.715 303.338 416.995 310 425 C 312.430 416.097 316.981 409.314 321 402 C 320.744 397.078 321.886 393.553 326 393 C 329.445 404.201 328.656 412.709 328 425 C 334.066 425.577 338.181 421.683 343 424 C 339.482 401.726 339.533 375.627 335 357 C 328.490 358.207 322.900 354.184 318 357 Z " transform="matrix(0.9240193963050842, 0, 0, 0.9240193963050842, -244.85, -325.65)"/>
  </g>
</svg>
